src/assets/mobile/jusanbank.svg

<svg width="101" height="24" viewBox="0 0 101 24" fill="none" xmlns="http://www.w3.org/2000/svg">
<path fill-rule="evenodd" clip-rule="evenodd" d="M5.88119 0.0932501C4.59916 0.324176 3.36651 0.951409 2.43545 1.84661C1.36403 2.8768 0.711065 4.09395 0.473253 5.50422C0.397109 5.95573 0.385742 6.79864 0.385742 12.0024C0.385742 17.2062 0.397109 18.0491 0.473253 18.5006C0.711065 19.9109 1.36403 21.128 2.43545 22.1582C3.15584 22.8509 3.97329 23.3412 4.954 23.6689C5.96136 24.0056 5.83644 24 12.4143 24C18.9914 24 18.8673 24.0055 19.8738 23.6692C22.2508 22.8749 23.8574 21.0343 24.3708 18.5171C24.4633 18.0638 24.4704 17.5953 24.4704 12.0024C24.4704 6.40954 24.4633 5.94098 24.3708 5.48771C24.0732 4.02846 23.5238 2.97994 22.525 1.96454C21.5817 1.00556 20.273 0.328139 18.9039 0.0900032C18.2026 -0.031954 6.56031 -0.0290923 5.88119 0.0932501ZM61.5769 3.86093C60.0762 4.02637 58.9016 4.42955 58.0096 5.0854C57.3113 5.59882 56.76 6.47135 56.5852 7.33991C56.4659 7.93219 56.4655 9.2008 56.5845 9.77349C56.789 10.7585 57.2344 11.5322 57.9076 12.072C58.3478 12.4248 59.2213 12.8463 59.8672 13.0172C60.5296 13.1926 62.1614 13.54 63.3425 13.7571C65.0532 14.0716 65.4926 14.3401 65.5861 15.1279C65.6602 15.7521 65.3803 16.3499 64.9018 16.5891C64.4297 16.825 64.1056 16.873 62.9839 16.873C62.0448 16.873 61.8935 16.8598 61.5331 16.7468C61.0788 16.6045 60.7283 16.3328 60.5953 16.0199C60.5502 15.914 60.4982 15.6292 60.4796 15.387L60.4458 14.9468L56.503 14.9179L56.4686 15.0548C56.4194 15.2502 56.5393 16.5372 56.6427 16.9242C56.766 17.3855 57.0565 17.9343 57.387 18.3304C58.1086 19.1952 59.4164 19.8206 61.0381 20.0765C61.9005 20.2124 64.2238 20.2108 65.0254 20.0735C67.396 19.6678 68.8321 18.6799 69.3281 17.1137C69.5786 16.3229 69.6323 15.093 69.4576 14.1495C69.2099 12.8119 68.5769 11.9507 67.3873 11.3324C66.6036 10.925 65.6441 10.6676 63.3149 10.2397C62.311 10.0553 61.6152 9.89391 61.37 9.78846C61.1113 9.67724 60.7704 9.4287 60.6727 9.27999C60.5207 9.04852 60.4571 8.57571 60.5306 8.22261C60.704 7.38955 61.5608 7.05284 63.3352 7.12059C64.4346 7.16253 65.0048 7.33826 65.2899 7.72295C65.4823 7.98233 65.5082 8.07049 65.5445 8.59024L65.5772 9.05804H69.5499L69.5678 8.81038C69.5991 8.37731 69.4697 7.33798 69.3295 6.89721C69.1368 6.29111 68.8428 5.83096 68.3588 5.37758C67.8394 4.89108 67.2609 4.55812 66.4659 4.28812C65.5043 3.96154 64.7423 3.85141 63.2874 3.82868C62.6045 3.81801 61.8348 3.83254 61.5769 3.86093ZM38.8908 4.77237C37.1105 5.66233 36.9182 5.80284 36.6196 6.4315L36.4438 6.80161L36.416 10.9567C36.3883 15.0935 36.3876 15.1132 36.2654 15.4146C36.1012 15.8192 35.882 16.0724 35.5255 16.2695L35.2299 16.4327L29.959 16.4643L29.9881 20.01L33.078 20.0085C36.4725 20.0069 36.5942 19.9974 37.6055 19.6543C38.3139 19.414 38.7593 19.1407 39.2719 18.632C39.6554 18.2513 39.7659 18.0984 39.9713 17.6641C40.5094 16.5259 40.5057 16.583 40.4873 9.76711L40.4717 3.98201L38.8908 4.77237ZM41.9569 4.042C41.9411 4.08306 41.9372 6.44201 41.9482 9.28407C41.9698 14.8983 41.9719 14.9385 42.2924 16.0416C42.6693 17.3386 43.4499 18.4676 44.4439 19.153C45.4313 19.8338 46.7438 20.1649 48.4724 20.1691C50.8004 20.1749 52.4832 19.5341 53.526 18.2449C54.1525 17.4705 54.4055 17.001 54.6499 16.1601C54.9887 14.994 54.9774 15.2162 54.997 9.34697L55.0149 3.96732H50.987L50.9709 9.37449C50.955 14.7264 50.9536 14.7852 50.8373 15.1236C50.6745 15.5976 50.4869 15.8978 50.1672 16.1961C49.7929 16.5453 49.4072 16.728 48.8831 16.8042C47.7801 16.9645 46.8053 16.4882 46.352 15.5676C46.0146 14.8823 46.019 14.966 46.0179 9.20938L46.017 3.96732H44.0013C42.355 3.96732 41.9804 3.98102 41.9569 4.042ZM75.9049 4.00859C75.8653 4.07546 75.0137 6.19639 72.8057 11.7272C71.6638 14.5877 70.4579 17.6009 70.1259 18.4234C69.7939 19.2458 69.5223 19.9455 69.5223 19.9781C69.5223 20.0195 70.1692 20.0375 71.6664 20.0375H73.8105L74.6722 17.8361H81.4164L82.3005 20.01L84.4363 20.0244C85.6629 20.0326 86.572 20.0179 86.572 19.9897C86.572 19.9037 86.3303 19.2895 84.3387 14.3139C83.2665 11.635 81.9246 8.2793 81.3567 6.85665C80.7889 5.43399 80.2893 4.20193 80.2465 4.11866L80.1687 3.96732H78.049C76.8832 3.96732 75.9184 3.98592 75.9049 4.00859ZM87.5652 20.0375H91.5924L91.6207 11.0943L92.0124 11.8098C92.2278 12.2033 92.6462 12.9586 92.9422 13.4883C93.2382 14.0181 93.7424 14.922 94.0626 15.4971C94.3828 16.0722 94.9351 17.0629 95.2899 17.6985C95.6446 18.3342 96.0814 19.1208 96.2606 19.4465L96.5863 20.0388L100.615 20.01V3.99483L96.559 3.96594L96.5587 8.43824C96.5583 12.3718 96.5487 12.8921 96.4786 12.758C96.4347 12.6742 96.2141 12.2779 95.9883 11.8775C95.7625 11.477 95.2616 10.5798 94.8751 9.88356C94.4887 9.18737 93.9171 8.15959 93.6049 7.59962C93.2927 7.03964 92.7134 5.99948 92.3177 5.28815L91.598 3.99483L87.5652 3.96594V20.0375ZM15.7959 4.86846C14.8052 5.36454 14.167 5.71759 14.0408 5.83949C13.9317 5.94488 13.7632 6.19155 13.6663 6.38764L13.4902 6.74421L13.4753 11.8223C13.4671 14.6153 13.4772 16.9005 13.4976 16.9005C13.5685 16.9005 16.5227 15.3992 16.6799 15.2833C16.8952 15.1246 17.2368 14.6018 17.3175 14.3078C17.3673 14.1261 17.3798 12.8294 17.3682 9.07758L17.3526 4.08894L15.7959 4.86846ZM77.5272 10.7274C77.2413 11.4438 76.8026 12.5376 76.5524 13.1581C76.3022 13.7787 76.0462 14.4164 75.9834 14.5753L75.8693 14.8642H80.2217L80.1395 14.6317C80.0386 14.3465 78.1314 9.57867 78.0823 9.48913C78.063 9.45374 77.8132 10.011 77.5272 10.7274ZM9.80388 13.3318C8.11155 14.1762 7.92423 14.3113 7.63703 14.8947L7.47597 15.2219L7.44391 19.93L8.98715 19.16C10.5454 18.3825 10.833 18.1986 11.0656 17.8312C11.3529 17.3773 11.3684 17.2136 11.3527 14.7996L11.3383 12.5661L9.80388 13.3318Z" fill="#090C21"/>
</svg>

<svg xmlns="http://www.w3.org/2000/svg" width="101" height="24" fill="none"><path fill="#090C21" fill-rule="evenodd" d="M5.881.093a6.77 6.77 0 0 0-3.446 1.754Q.83 3.39.473 5.504C.397 5.956.386 6.8.386 12.002s.011 6.047.087 6.499q.356 2.113 1.962 3.657a6.5 6.5 0 0 0 2.519 1.51c1.007.338.882.332 7.46.332 6.577 0 6.453.006 7.46-.33 2.377-.795 3.983-2.636 4.497-5.153.092-.453.1-.922.1-6.515 0-5.592-.008-6.061-.1-6.514-.298-1.46-.847-2.508-1.846-3.523-.943-.96-2.252-1.637-3.621-1.875C18.203-.032 6.56-.03 5.88.093m55.696 3.768c-1.5.165-2.675.569-3.567 1.224-.699.514-1.25 1.386-1.425 2.255-.12.592-.12 1.86 0 2.433.204.986.65 1.76 1.323 2.299.44.353 1.313.774 1.96.945.662.176 2.293.523 3.474.74 1.711.315 2.15.583 2.244 1.37.074.625-.206 1.223-.684 1.462-.472.236-.796.284-1.918.284-.94 0-1.09-.013-1.45-.126-.455-.142-.806-.414-.939-.727-.045-.106-.097-.39-.115-.633l-.034-.44-3.943-.03-.034.138c-.05.195.07 1.482.174 1.87.123.46.413 1.01.744 1.405.722.865 2.03 1.49 3.651 1.747.863.135 3.186.134 3.987-.004q3.558-.608 4.303-2.96c.25-.79.304-2.02.13-2.963-.248-1.338-.881-2.2-2.07-2.818-.784-.407-1.744-.664-4.073-1.092-1.004-.185-1.7-.346-1.945-.452-.259-.11-.6-.36-.697-.508-.152-.231-.216-.704-.142-1.057.173-.833 1.03-1.17 2.804-1.102 1.1.042 1.67.217 1.955.602.192.26.218.347.254.867l.033.468h3.973l.018-.248c.031-.433-.098-1.472-.239-1.913a3.37 3.37 0 0 0-.97-1.52c-.52-.486-1.098-.819-1.893-1.089-.962-.326-1.724-.437-3.179-.46-.682-.01-1.452.005-1.71.033m-22.686.911c-1.78.89-1.973 1.03-2.271 1.66l-.176.37-.028 4.155c-.028 4.137-.028 4.156-.15 4.458-.165.404-.384.657-.74.855l-.296.163-5.271.031.03 3.546 3.089-.002c3.394-.001 3.516-.01 4.527-.354.709-.24 1.154-.513 1.667-1.022.383-.38.494-.534.7-.968.537-1.138.534-1.081.515-7.897l-.015-5.785zm3.066-.73c-.016.041-.02 2.4-.009 5.242.022 5.614.024 5.654.344 6.758.377 1.297 1.158 2.426 2.152 3.111.987.68 2.3 1.012 4.028 1.016q3.49.01 5.054-1.924c.627-.774.88-1.244 1.124-2.085.339-1.166.327-.944.347-6.813l.018-5.38h-4.028l-.016 5.407c-.016 5.352-.017 5.411-.134 5.75-.163.474-.35.774-.67 1.072-.374.35-.76.532-1.284.608-1.103.16-2.078-.316-2.531-1.236-.337-.686-.333-.602-.334-6.359l-.001-5.242h-2.016c-1.646 0-2.02.014-2.044.075m33.948-.033c-.04.066-.891 2.187-3.1 7.718-1.141 2.86-2.347 5.874-2.68 6.696-.331.823-.603 1.523-.603 1.555 0 .041.647.06 2.144.06h2.145l.861-2.202h6.744l.885 2.174 2.135.014c1.227.009 2.136-.006 2.136-.034 0-.086-.242-.7-2.233-5.676-1.073-2.679-2.414-6.035-2.982-7.457a150 150 0 0 0-1.11-2.738l-.078-.152h-2.12c-1.166 0-2.13.019-2.144.042m11.66 16.029h4.027l.029-8.944.391.716c.216.393.634 1.149.93 1.678l1.12 2.01 1.228 2.2c.355.636.791 1.423.97 1.749l.326.592 4.029-.029V3.995l-4.056-.03v4.473c0 3.934-.01 4.454-.08 4.32a64 64 0 0 0-.49-.88c-.227-.401-.727-1.298-1.114-1.994-.386-.697-.958-1.724-1.27-2.284s-.892-1.6-1.287-2.312l-.72-1.293-4.033-.03zm-71.77-15.17c-.99.497-1.628.85-1.754.971-.11.106-.278.353-.375.549l-.176.356-.015 5.078c-.008 2.793.002 5.079.023 5.079.07 0 3.025-1.502 3.182-1.618.215-.158.557-.681.637-.975.05-.182.063-1.479.051-5.23l-.015-4.99zm61.732 5.86c-.286.716-.724 1.81-.975 2.43l-.569 1.417-.114.29h4.353l-.082-.233c-.101-.285-2.009-5.053-2.058-5.143-.019-.035-.269.522-.555 1.238M9.804 13.331c-1.692.844-1.88.98-2.167 1.563l-.161.327-.032 4.708 1.543-.77c1.558-.777 1.846-.961 2.079-1.329.287-.454.302-.617.287-3.031l-.015-2.234z" clip-rule="evenodd"/></svg>
